modules/coreui-icons-free/icons/signal-cellular-3.svg

<!-- Generated by IcoMoon.io -->
<svg version="1.1" xmlns="http://www.w3.org/2000/svg" width="24" height="24" viewBox="0 0 24 24">
<title>signal-cellular-3</title>
<path d="M9.787 12.375h-0.005v0.005l-9.032 9.032v1.838h22.5v-22.5h-1.838zM13.907 10.376v11.374h-2.625v-8.749zM9.782 21.75h-2.625v-4.624l2.625-2.625zM5.657 18.626v3.124h-3.124zM21.75 21.75h-6.343v-12.874l6.343-6.343z"></path>
</svg>

<svg xmlns="http://www.w3.org/2000/svg" width="24" height="24" viewBox="0 0 24 24"><path d="M9.787 12.375h-.005v.005L.75 21.412v1.838h22.5V.75h-1.838zm4.12-1.999V21.75h-2.625v-8.749zM9.782 21.75H7.157v-4.624l2.625-2.625zm-4.125-3.124v3.124H2.533zM21.75 21.75h-6.343V8.876l6.343-6.343z"/></svg>
